icons/dynatrace.svg

<?xml version="1.0" encoding="UTF-8"?>
<svg width="512px" height="91px" viewBox="0 0 512 91" version="1.1" xmlns="http://www.w3.org/2000/svg" xmlns:xlink="http://www.w3.org/1999/xlink" preserveAspectRatio="xMidYMid">
    <g>
        <path d="M160.079087,16.8269927 L177.979084,63.4054809 L195.879082,16.8269927 L203.257217,16.8269927 L175.220303,89.8384521 L167.842168,89.8384521 L174.322096,72.9649777 L152.765109,16.8269927 L160.079087,16.8269927 Z M463.160048,16.8911504 L463.160048,23.2427625 L446.158258,23.2427625 C440.319908,23.2427625 436.727077,24.9108626 434.481557,27.0922243 C431.851092,29.5943745 430.952884,33.0588901 430.952884,35.6893557 L430.952884,35.6893557 L430.952884,54.2950879 C430.952884,56.9255534 431.851092,60.3259114 434.481557,62.8922193 C436.662919,65.073581 440.319908,66.7416811 446.158258,66.7416811 L446.158258,66.7416811 L463.160048,66.7416811 L463.160048,73.0932931 L446.863993,73.0932931 C437.817758,73.0932931 432.364353,70.3986698 429.028153,67.1266273 C424.001766,62.2243482 423.836966,55.2814025 423.831563,54.1347763 L423.831563,35.8496673 C423.836966,34.703041 424.001766,27.7600954 429.028153,22.8578163 C432.428511,19.5857737 437.881915,16.8911504 446.863993,16.8911504 L446.863993,16.8911504 L463.160048,16.8911504 Z M370.644649,16.8911504 L370.644649,23.2427625 L358.775475,23.2427625 C355.439275,23.2427625 353.129597,23.8843394 351.718128,25.2958088 C350.306659,26.6431204 349.600924,29.0169552 349.600924,32.2248401 L349.600924,73.0291354 L342.543577,73.0291354 L342.543577,31.7115785 C342.607735,28.5678513 343.120997,25.1674934 344.789097,22.6011855 C347.804509,17.7893582 353.578701,16.8911504 357.877267,16.8911504 L370.644649,16.8911504 Z M147.18339,0.0176761002 L147.18339,58.2087074 C147.119232,61.3524345 146.541813,64.7527925 144.93787,67.3191004 C141.922459,72.06677 136.148266,73.0291354 131.8497,73.0291354 L131.8497,73.0291354 L125.241457,73.0291354 C116.195222,73.0291354 110.741818,70.3345121 107.405617,67.0624696 C102.549616,62.3263694 102.23119,55.6856081 102.210309,54.206901 L102.208867,54.0173491 L102.208867,54.0173491 L102.208844,53.9742994 L102.208844,35.8818288 C102.208844,35.8692076 102.208844,35.854845 102.208867,35.838779 L102.210309,35.6492272 C102.23119,34.1705201 102.549616,27.5297587 107.405617,22.7936586 C110.805975,19.521616 116.25938,16.8269927 125.241457,16.8269927 L125.241457,16.8269927 L140.061885,16.8269927 L140.061885,0.0176761002 L147.18339,0.0176761002 Z M228.920296,16.8269927 C237.389112,16.9553081 242.585885,19.5857737 245.857928,22.7936586 C250.73812,27.6128482 250.978129,34.4041155 250.989933,35.7222493 L250.990544,73.0291354 L243.933197,73.0291354 L243.933197,35.6893557 C243.933197,33.0588901 243.034989,29.6585322 240.468681,27.0922243 C238.28732,24.9750203 234.117069,23.3069202 228.53535,23.2427625 C222.95363,23.3069202 218.78338,24.9750203 216.602018,27.0922243 C213.971552,29.6585322 213.137502,33.0588901 213.137502,35.6893557 L213.137502,35.6893557 L213.137502,73.0291354 L206.080156,73.0291354 L206.080766,35.7222493 C206.09257,34.4041155 206.332579,27.6128482 211.212771,22.7936586 C214.484814,19.5857737 219.681587,16.9553081 228.150403,16.8269927 L228.150403,16.8269927 Z M489.913808,16.8269927 C498.382624,16.9553081 503.579397,19.5857737 506.85144,22.7936586 C512.048213,27.8621167 512.048213,35.1119364 511.984056,35.8818288 L511.984056,35.8818288 L511.984056,47.5585297 L474.131014,47.5585297 L474.131014,54.1667725 C474.131014,56.7972381 475.029222,60.197596 477.59553,62.7639039 C479.776892,64.8811079 483.947142,66.549208 489.528862,66.6133657 L489.528862,66.6133657 L505.824917,66.6133657 L505.824917,73.0291354 L489.143915,73.0291354 C480.675099,72.90082 475.478326,70.2703544 472.206283,67.0624696 C467.24195,62.1601905 467.079185,55.2172448 467.073848,54.0706186 L467.073848,35.7855096 C467.079185,34.6388833 467.24195,27.6959377 472.206283,22.7936586 C475.478326,19.5857737 480.675099,16.9553081 489.143915,16.8269927 L489.143915,16.8269927 Z M315.853975,0.0176761002 L315.853975,16.8911504 L330.674403,16.8911504 L330.674403,23.2427625 L315.853975,23.2427625 L315.853975,57.7596035 C315.853975,60.9674884 316.55971,63.2130078 317.971179,64.5603194 C319.382649,65.9717887 321.692326,66.6133657 325.028526,66.6133657 L325.028526,66.6133657 L336.8977,66.6133657 L336.8977,72.9649777 L324.130318,72.9649777 C319.831753,72.9649777 314.05756,72.06677 311.042148,67.2549427 C309.374048,64.6886348 308.860786,61.2882769 308.796629,58.1445497 L308.796629,58.1445497 L308.796629,0.0176761002 L315.853975,0.0176761002 Z M278.450038,16.8269927 C287.496273,16.8269927 292.949678,19.521616 296.285878,22.7936586 C301.227072,27.6128482 301.470082,34.4041155 301.482033,35.7222493 L301.482651,58.1445497 C301.418494,61.2882769 300.841074,64.6886348 299.237132,67.2549427 C296.22172,72.0026123 290.447527,72.9649777 286.148962,72.9649777 L286.148962,72.9649777 L271.841795,72.9649777 C267.543229,72.9649777 261.769037,72.06677 258.753625,67.2549427 C257.085525,64.6886348 256.572263,61.2882769 256.508106,58.1445497 L256.508106,58.1445497 L256.508106,55.8990303 C256.572263,52.7553031 257.149683,49.3549452 258.753625,46.7886373 C261.769037,42.0409677 267.543229,41.0786023 271.841795,41.0786023 L271.841795,41.0786023 L294.361147,41.0786023 L294.361147,35.625198 C294.361147,32.9947324 293.462939,29.5943745 290.832474,27.0280666 C288.651112,24.8467049 284.994123,23.1786048 279.155773,23.1786048 L279.155773,23.1786048 L262.731402,23.1786048 L262.731402,16.8269927 Z M395.217047,16.8269927 C404.263282,16.8269927 409.716686,19.521616 413.052887,22.7936586 C417.994081,27.6128482 418.237091,34.4041155 418.249042,35.7222493 L418.24966,58.1445497 C418.185502,61.2882769 417.608083,64.6886348 416.004141,67.2549427 C412.988729,72.0026123 407.214536,72.9649777 402.91597,72.9649777 L402.91597,72.9649777 L388.608804,72.9649777 C384.310238,72.9649777 378.536046,72.06677 375.520634,67.2549427 C373.852534,64.6886348 373.339272,61.2882769 373.275114,58.1445497 L373.275114,58.1445497 L373.275114,55.8990303 C373.339272,52.7553031 373.916691,49.3549452 375.520634,46.7886373 C378.536046,42.0409677 384.310238,41.0786023 388.608804,41.0786023 L388.608804,41.0786023 L411.128156,41.0786023 L411.128156,35.625198 C411.128156,32.9947324 410.229948,29.5943745 407.599482,27.0280666 C405.418121,24.8467049 401.761132,23.1786048 395.922781,23.1786048 L395.922781,23.1786048 L379.498411,23.1786048 L379.498411,16.8269927 Z M139.997728,23.2427625 L124.471565,23.2427625 C118.633214,23.2427625 115.040383,24.9108626 112.794864,27.0922243 C110.164398,29.6585322 109.266191,33.0588901 109.266191,35.6893557 L109.266191,35.6893557 L109.266191,54.2309302 C109.266191,56.8613957 110.164398,60.2617537 112.794864,62.8280616 C114.976226,65.0094233 118.633214,66.6775234 124.471565,66.6775234 L124.471565,66.6775234 L130.887335,66.6775234 C134.223535,66.6775234 136.533212,65.9717887 137.944681,64.6244771 C139.356151,63.2130078 140.061885,60.9674884 139.997728,57.8237612 L139.997728,57.8237612 L139.997728,23.2427625 Z M294.425305,47.4302143 L272.868318,47.4302143 C269.532118,47.4302143 267.222441,48.1359489 265.810972,49.4832606 C264.399502,50.8305722 263.693768,53.0760916 263.693768,56.2839765 L263.693768,56.2839765 L263.693768,57.8237612 C263.693768,60.9674884 264.335345,63.2130078 265.746814,64.6244771 C267.158283,66.0359464 269.46796,66.6775234 272.804161,66.6775234 L272.804161,66.6775234 L285.250754,66.6775234 C288.586954,66.6775234 290.896631,65.9717887 292.308101,64.6244771 C293.71957,63.2130078 294.425305,60.9674884 294.425305,57.8237612 L294.425305,57.8237612 L294.425305,47.4302143 Z M411.192313,47.4302143 L389.635327,47.4302143 C386.299127,47.4302143 383.98945,48.1359489 382.57798,49.4832606 C381.166511,50.8305722 380.460776,53.0760916 380.460776,56.2839765 L380.460776,56.2839765 L380.460776,57.8237612 C380.460776,60.9674884 381.102353,63.2130078 382.513823,64.6244771 C383.925292,66.0359464 386.234969,66.6775234 389.571169,66.6775234 L389.571169,66.6775234 L402.017763,66.6775234 C405.353963,66.6775234 407.66364,65.9717887 409.075109,64.6244771 C410.486579,63.2130078 411.192313,60.9674884 411.192313,57.8237612 L411.192313,57.8237612 L411.192313,47.4302143 Z M489.593019,23.2427625 C484.0113,23.3069202 479.841049,24.9750203 477.659688,27.0922243 C475.029222,29.6585322 474.195172,33.0588901 474.195172,35.6893557 L474.195172,35.6893557 L474.195172,41.2069177 L504.990867,41.2069177 L504.990867,35.6893557 C504.990867,33.0588901 504.092659,29.6585322 501.526351,27.0922243 C499.344989,24.9750203 495.174739,23.3069202 489.593019,23.2427625 Z" fill="#1A1A1A"></path>
        <g>
            <path d="M29.9672771,7.52412666 C28.8124385,13.6191079 27.4009692,22.6653432 26.6310768,31.8398939 C25.2837652,48.0076335 26.1178152,58.8502844 26.1178152,58.8502844 L3.34183275,80.4714283 C3.34183275,80.4714283 1.60957493,68.3456235 0.711367168,54.680034 C0.198105592,46.211218 0.00563250016,38.7689252 0.00563250016,34.2778864 C0.00563250016,34.0212556 0.133947894,33.7646248 0.133947894,33.507994 C0.133947894,33.1872055 0.518894077,30.1717937 3.47014814,27.3488551 C6.678033,24.2692856 30.3522232,5.72771114 29.9672771,7.52412666 Z" fill="#1496FF"></path>
            <path d="M29.9672771,7.52412666 C28.8124385,13.6191079 27.4009692,22.6653432 26.6310768,31.8398939 C26.6310768,31.8398939 1.41710184,28.8244821 0.00563250016,34.9194633 C0.00563250016,34.5986748 0.45473638,30.8775284 3.40599045,28.0545897 C6.6138753,24.9750203 30.3522232,5.72771114 29.9672771,7.52412666 L29.9672771,7.52412666 Z" fill="#1284EA"></path>
            <path d="M0.00563250016,33.4438363 L0.00563250016,34.8553056 C0.262263289,33.7646248 0.711367168,32.9947324 1.60957493,31.7757362 C3.47014814,29.4019014 6.48555991,28.7603244 7.70455615,28.632009 C13.8636951,27.797959 22.9740881,26.8355935 32.1486388,26.5789627 C48.3805361,26.0657011 59.0948715,27.4130128 59.0948715,27.4130128 L81.870854,5.79186884 C81.870854,5.79186884 69.9375224,3.54634944 56.3360906,1.94240701 C47.4181707,0.851726163 39.5909316,0.274306889 35.1640505,0.0176761002 C34.843262,0.0176761002 31.6995349,-0.367270083 28.7482808,2.45566859 C25.540396,5.53523805 9.24434089,20.9972431 2.70025578,27.2205397 C-0.250998288,30.0434784 0.00563250016,33.1872055 0.00563250016,33.4438363 Z" fill="#B4DC00"></path>
            <path d="M81.036804,61.0958038 C74.877665,61.9298538 65.767272,62.956377 56.5927214,63.2771655 C40.360824,63.790427 29.5823309,62.4431154 29.5823309,62.4431154 L6.8063484,84.128417 C6.8063484,84.128417 18.8679955,86.5022518 32.4694272,88.0420366 C40.8099279,89.004402 48.188063,89.5176636 52.6791018,89.7742944 C52.9998903,89.7742944 53.5131519,89.5176636 53.8339404,89.5176636 C54.1547289,89.5176636 57.298456,88.9402443 60.2497101,86.1173056 C63.457595,83.0377362 82.8332195,60.9033307 81.036804,61.0958038 L81.036804,61.0958038 Z" fill="#6F2DA8"></path>
            <path d="M81.036804,61.0958038 C74.877665,61.9298538 65.767272,62.956377 56.5927214,63.2771655 C56.5927214,63.2771655 58.3249792,88.6194558 52.229998,89.7101367 C52.5507864,89.7101367 56.7210368,89.5176636 59.6722908,86.6947249 C62.8801757,83.6151554 82.8332195,60.9033307 81.036804,61.0958038 L81.036804,61.0958038 Z" fill="#591F91"></path>
            <path d="M53.5773096,89.8384521 C53.1282057,89.8384521 52.6791018,89.7742944 52.1658403,89.7742944 C53.3206788,89.5818213 54.0905712,89.1968751 55.3095674,88.2986673 C57.7475599,86.5664095 58.5174523,83.5509978 58.7740831,82.3320015 C59.8647639,76.2370203 61.3403909,67.190785 62.0461256,58.0162343 C63.3292796,41.8484946 62.5593872,31.0700015 62.5593872,31.0700015 L85.3353697,9.38469988 C85.3353697,9.38469988 87.0034698,21.4463469 87.9658353,35.1119364 C88.5432545,44.0298563 88.7357276,51.9212531 88.7998853,56.2839765 C88.7998853,56.604765 89.0565161,59.7484921 86.105262,62.5714308 C82.8973772,65.6510003 66.6013221,81.177163 60.1213947,87.4004596 C57.0418252,90.2233983 53.8980981,89.8384521 53.5773096,89.8384521 L53.5773096,89.8384521 Z" fill="#73BE28"></path>
        </g>
    </g>
</svg>

<svg xmlns="http://www.w3.org/2000/svg" viewBox="0 0 511.996 89.856">
  <path fill="#1a1a1a" d="m160.08 16.827 17.9 46.578 17.9-46.578h7.377L175.22 89.838h-7.378l6.48-16.873-21.557-56.138zm303.08.064v6.352h-17.002c-5.838 0-9.43 1.668-11.676 3.85-2.63 2.501-3.53 5.966-3.53 8.596v18.606c0 2.63.9 6.03 3.53 8.597 2.18 2.182 5.838 3.85 11.676 3.85h17.002v6.351h-16.296c-9.046 0-14.5-2.694-17.836-5.966-5.026-4.903-5.191-11.846-5.196-12.992V35.85c.005-1.147.17-8.09 5.196-12.992 3.4-3.272 8.854-5.967 17.836-5.967zm-92.515 0v6.352h-11.87c-3.336 0-5.645.641-7.057 2.053-1.411 1.347-2.117 3.721-2.117 6.929v40.804h-7.057V31.712c.064-3.144.577-6.545 2.245-9.11 3.016-4.813 8.79-5.71 13.088-5.71zM147.183.018v58.19c-.064 3.144-.641 6.545-2.245 9.111-3.016 4.748-8.79 5.71-13.088 5.71h-6.609c-9.046 0-14.5-2.694-17.835-5.967-4.856-4.736-5.175-11.376-5.196-12.855V35.649c.021-1.478.34-8.12 5.196-12.855 3.4-3.272 8.853-5.967 17.835-5.967h14.82V.017zm81.737 16.809c8.47.128 13.666 2.759 16.938 5.967 4.88 4.819 5.12 11.61 5.132 12.928V73.03h-7.057V35.69c0-2.63-.898-6.03-3.464-8.597-2.182-2.117-6.352-3.785-11.934-3.85-5.581.065-9.752 1.733-11.933 3.85-2.63 2.567-3.465 5.967-3.465 8.597v37.34h-7.057V35.722c.013-1.318.253-8.11 5.133-12.928 3.272-3.208 8.469-5.839 16.937-5.967zm260.994 0c8.469.128 13.665 2.759 16.937 5.967 5.197 5.068 5.197 12.318 5.133 13.088v11.677h-37.853v6.608c0 2.63.898 6.03 3.465 8.597 2.18 2.117 6.351 3.785 11.933 3.85h16.296v6.415h-16.681c-8.469-.128-13.666-2.759-16.938-5.967-4.964-4.902-5.127-11.845-5.132-12.991V35.786c.005-1.147.168-8.09 5.132-12.992 3.272-3.208 8.47-5.839 16.938-5.967zM315.854.017v16.874h14.82v6.352h-14.82V57.76c0 3.207.706 5.453 2.117 6.8 1.412 1.412 3.721 2.053 7.058 2.053h11.869v6.352H324.13c-4.298 0-10.072-.898-13.088-5.71-1.668-2.566-2.181-5.967-2.245-9.11V.018zm-37.404 16.81c9.046 0 14.5 2.695 17.836 5.967 4.941 4.819 5.184 11.61 5.196 12.928v22.423c-.064 3.143-.64 6.544-2.245 9.11-3.015 4.748-8.79 5.71-13.088 5.71h-14.307c-4.299 0-10.073-.898-13.088-5.71-1.668-2.566-2.182-5.967-2.246-9.11v-2.246c.064-3.144.642-6.544 2.246-9.11 3.015-4.748 8.79-5.71 13.088-5.71h22.52v-5.454c0-2.63-.9-6.03-3.53-8.597-2.18-2.181-5.838-3.85-11.676-3.85H262.73v-6.351zm116.767 0c9.046 0 14.5 2.695 17.836 5.967 4.941 4.819 5.184 11.61 5.196 12.928v22.423c-.064 3.143-.64 6.544-2.245 9.11-3.015 4.748-8.79 5.71-13.088 5.71h-14.307c-4.299 0-10.073-.898-13.088-5.71-1.668-2.566-2.182-5.967-2.246-9.11v-2.246c.064-3.144.642-6.544 2.246-9.11 3.015-4.748 8.79-5.71 13.088-5.71h22.52v-5.454c0-2.63-.9-6.03-3.53-8.597-2.18-2.181-5.838-3.85-11.676-3.85h-16.425v-6.351zm-255.22 6.416h-15.525c-5.839 0-9.432 1.668-11.677 3.85-2.63 2.566-3.529 5.966-3.529 8.596v18.542c0 2.63.898 6.03 3.529 8.597 2.181 2.181 5.838 3.85 11.677 3.85h6.415c3.337 0 5.646-.706 7.058-2.054 1.411-1.411 2.117-3.657 2.053-6.8zM294.426 47.43h-21.557c-3.336 0-5.646.706-7.057 2.053-1.411 1.348-2.117 3.593-2.117 6.801v1.54c0 3.143.641 5.389 2.053 6.8 1.411 1.412 3.721 2.054 7.057 2.054h12.447c3.336 0 5.646-.706 7.057-2.054 1.412-1.411 2.117-3.657 2.117-6.8zm116.767 0h-21.557c-3.336 0-5.646.706-7.057 2.053-1.411 1.348-2.117 3.593-2.117 6.801v1.54c0 3.143.641 5.389 2.053 6.8 1.411 1.412 3.721 2.054 7.057 2.054h12.447c3.336 0 5.646-.706 7.057-2.054 1.412-1.411 2.117-3.657 2.117-6.8zm78.401-24.187c-5.582.064-9.752 1.732-11.933 3.85-2.63 2.566-3.465 5.966-3.465 8.596v5.518h30.796v-5.518c0-2.63-.898-6.03-3.465-8.597-2.181-2.117-6.351-3.785-11.933-3.85z"/>
  <path fill="#1496ff" d="M29.967 7.524c-1.155 6.095-2.566 15.141-3.336 24.316-1.347 16.168-.513 27.01-.513 27.01L3.342 80.471S1.61 68.346.712 54.68C.197 46.211.005 38.769.005 34.278c0-.257.128-.513.128-.77 0-.32.385-3.336 3.336-6.16C6.678 24.27 30.352 5.729 29.967 7.525z"/>
  <path fill="#1284ea" d="M29.967 7.524c-1.155 6.095-2.566 15.141-3.336 24.316 0 0-25.214-3.016-26.625 3.08 0-.321.449-4.042 3.4-6.865 3.208-3.08 26.946-22.327 26.561-20.53z"/>
  <path fill="#b4dc00" d="M.006 33.444v1.411c.256-1.09.705-1.86 1.604-3.08 1.86-2.373 4.876-3.015 6.095-3.143 6.159-.834 15.27-1.796 24.444-2.053 16.232-.513 26.946.834 26.946.834L81.87 5.792s-11.933-2.246-25.535-3.85A346.23 346.23 0 0 0 35.164.018c-.32 0-3.464-.385-6.416 2.438C25.54 5.536 9.244 20.997 2.7 27.22-.25 30.043.006 33.187.006 33.444z"/>
  <path fill="#6f2da8" d="M81.037 61.096c-6.16.834-15.27 1.86-24.444 2.181-16.232.513-27.01-.834-27.01-.834L6.805 84.128s12.062 2.374 25.663 3.914c8.34.962 15.72 1.476 20.21 1.732.32 0 .834-.256 1.155-.256.32 0 3.464-.578 6.416-3.4 3.208-3.08 22.583-25.215 20.787-25.022z"/>
  <path fill="#591f91" d="M81.037 61.096c-6.16.834-15.27 1.86-24.444 2.181 0 0 1.732 25.342-4.363 26.433.32 0 4.491-.192 7.442-3.015 3.208-3.08 23.161-25.792 21.365-25.6z"/>
  <path fill="#73be28" d="M53.577 89.838c-.449 0-.898-.064-1.411-.064 1.155-.192 1.925-.577 3.144-1.475 2.438-1.733 3.207-4.748 3.464-5.967 1.09-6.095 2.566-15.141 3.272-24.316 1.283-16.168.513-26.946.513-26.946L85.335 9.385s1.668 12.061 2.63 25.727c.578 8.918.77 16.81.835 21.172 0 .32.257 3.464-2.695 6.287-3.208 3.08-19.504 18.606-25.984 24.83-3.08 2.822-6.223 2.437-6.544 2.437z"/>
</svg>
